X:171
T:Lady Anne Montgomery
B:Terry "Cuz" Teahan "Sliabh Luachra on Parade" 1980
Z:Patrick Cavanagh
M:4/4
L:1/8
R:Reel
K:D
| FADA FADA | FAdA BAdG | FADF E2EF | DBAB d2d2 | 
FADA FADA | FAdA BABc | dBAF E2EF | DBAB d2d2 | 
| f2fe fede | fedB ABde | f2e2 fede | faaf e2e2 | 
f2fe fede | fedB ABde | fded BdAg | faaf d2d2 || 

